;FLAVOR:Marlin
;TIME:6367
;Filament used: 8.89227m
;Layer height: 0.3
;Generated with Cura_SteamEngine 1.2.3
M140 S60
M104 S230
M109 S230
G28
G1 Z50.00 F400
G92 E0
G1 F200 E3
G92 E0
M132 X Y Z A
M907 X100 Y100 Z50 A100
;LAYER_COUNT:17
;LAYER:0
M107
M204 S2000
G0 F3000 X49.775 Y57.116 Z0.3
;TYPE:SKIRT
G1 F1500 X49.735 Y57.734 E0.0309
G1 X49.616 Y58.342 E0.06181
G1 X49.419 Y58.929 E0.0927
G1 X49.149 Y59.487 E0.12362
G1 X48.809 Y60.004 E0.15449
G1 X48.405 Y60.474 E0.18541
G1 X47.944 Y60.888 E0.21633
G1 X47.434 Y61.238 E0.24719
G1 X46.882 Y61.521 E0.27813
G1 X46.299 Y61.73 E0.30903
G1 X45.694 Y61.862 E0.33993
G1 X44.975 Y61.916 E0.3759
G1 X-44.979 Y61.916 E4.86372
G1 X-45.597 Y61.876 E4.89462
G1 X-46.205 Y61.757 E4.92553
G1 X-46.792 Y61.56 E4.95642
G1 X-47.349 Y61.29 E4.9873
G1 X-47.867 Y60.95 E5.01821
G1 X-48.337 Y60.546 E5.04913
G1 X-48.75 Y60.085 E5.08001
G1 X-49.101 Y59.575 E5.1109
G1 X-49.384 Y59.024 E5.1418
G1 X-49.593 Y58.441 E5.1727
G1 X-49.725 Y57.835 E5.20364
G1 X-49.779 Y57.116 E5.23962
G1 X-49.777 Y-57.164 E10.94107
G1 X-49.737 Y-57.782 E10.97196
G1 X-49.618 Y-58.39 E11.00287
G1 X-49.421 Y-58.977 E11.03376
G1 X-49.151 Y-59.534 E11.06465
G1 X-48.811 Y-60.052 E11.09556
G1 X-48.407 Y-60.522 E11.12648
G1 X-47.946 Y-60.935 E11.15736
G1 X-47.436 Y-61.286 E11.18825
G1 X-46.885 Y-61.569 E11.21915
G1 X-46.301 Y-61.778 E11.25009
G1 X-45.696 Y-61.91 E11.28099
G1 X-44.977 Y-61.964 E11.31696
G1 X44.979 Y-61.965 E15.80488
G1 X45.597 Y-61.925 E15.83578
G1 X46.205 Y-61.806 E15.86669
G1 X46.792 Y-61.609 E15.89758
G1 X47.349 Y-61.339 E15.92846
G1 X47.867 Y-60.999 E15.95937
G1 X48.337 Y-60.595 E15.99029
G1 X48.75 Y-60.134 E16.02117
G1 X49.101 Y-59.624 E16.05206
G1 X49.384 Y-59.073 E16.08296
G1 X49.593 Y-58.49 E16.11386
G1 X49.725 Y-57.885 E16.14476
G1 X49.779 Y-57.165 E16.18078
G1 X49.775 Y57.116 E21.88228
G0 F3000 X49.375 Y57.116
G1 F1500 X49.335 Y57.708 E21.91188
G1 X49.216 Y58.289 E21.94147
G1 X49.02 Y58.848 E21.97102
G1 X48.75 Y59.376 E22.00061
G1 X48.412 Y59.863 E22.03019
G1 X48.011 Y60.301 E22.05981
G1 X47.555 Y60.68 E22.08939
G1 X47.053 Y60.994 E22.11894
G1 X46.513 Y61.239 E22.14852
G1 X45.944 Y61.408 E22.17813
G1 X45.358 Y61.499 E22.20772
G1 X44.975 Y61.516 E22.22685
G1 X-44.979 Y61.516 E26.71467
G1 X-45.571 Y61.476 E26.74427
G1 X-46.151 Y61.357 E26.77381
G1 X-46.711 Y61.161 E26.80341
G1 X-47.239 Y60.891 E26.833
G1 X-47.726 Y60.553 E26.86257
G1 X-48.163 Y60.152 E26.89216
G1 X-48.543 Y59.697 E26.92174
G1 X-48.857 Y59.194 E26.95132
G1 X-49.102 Y58.654 E26.9809
G1 X-49.271 Y58.085 E27.01052
G1 X-49.362 Y57.5 E27.04005
G1 X-49.379 Y57.116 E27.05923
G1 X-49.377 Y-57.164 E32.76068
G1 X-49.337 Y-57.756 E32.79029
G1 X-49.218 Y-58.337 E32.81987
G1 X-49.022 Y-58.896 E32.84943
G1 X-48.752 Y-59.424 E32.87901
G1 X-48.414 Y-59.911 E32.90859
G1 X-48.013 Y-60.348 E32.93818
G1 X-47.558 Y-60.728 E32.96775
G1 X-47.055 Y-61.042 E32.99734
G1 X-46.515 Y-61.287 E33.02692
G1 X-45.946 Y-61.456 E33.05653
G1 X-45.36 Y-61.547 E33.08612
G1 X-44.977 Y-61.564 E33.10525
G1 X44.979 Y-61.565 E37.59317
G1 X45.571 Y-61.525 E37.62277
G1 X46.151 Y-61.406 E37.65231
G1 X46.711 Y-61.21 E37.68191
G1 X47.239 Y-60.94 E37.7115
G1 X47.726 Y-60.602 E37.74107
G1 X48.163 Y-60.201 E37.77066
G1 X48.543 Y-59.746 E37.80024
G1 X48.857 Y-59.243 E37.82982
G1 X49.102 Y-58.703 E37.8594
G1 X49.271 Y-58.134 E37.88902
G1 X49.362 Y-57.549 E37.91855
G1 X49.379 Y-57.165 E37.93773
G1 X49.375 Y57.116 E43.63923
G0 F3000 X48.975 Y57.116
G1 F1500 X48.935 Y57.68 E43.66744
G1 X48.816 Y58.233 E43.69566
G1 X48.62 Y58.763 E43.72385
G1 X48.352 Y59.26 E43.75203
G1 X48.016 Y59.715 E43.78024
G1 X47.619 Y60.118 E43.80847
G1 X47.169 Y60.461 E43.8367
G1 X46.676 Y60.736 E43.86486
G1 X46.148 Y60.94 E43.8931
G1 X45.597 Y61.067 E43.92131
G1 X44.975 Y61.116 E43.95244
G1 X-44.979 Y61.116 E48.44026
G1 X-45.543 Y61.076 E48.46847
G1 X-46.096 Y60.957 E48.49669
G1 X-46.626 Y60.761 E48.52488
G1 X-47.123 Y60.493 E48.55305
G1 X-47.578 Y60.157 E48.58127
G1 X-47.981 Y59.76 E48.60949
G1 X-48.323 Y59.31 E48.63769
G1 X-48.599 Y58.817 E48.66588
G1 X-48.803 Y58.289 E48.69412
G1 X-48.93 Y57.739 E48.72228
G1 X-48.979 Y57.116 E48.75346
G1 X-48.977 Y-57.164 E54.45491
G1 X-48.937 Y-57.728 E54.48312
G1 X-48.818 Y-58.281 E54.51134
G1 X-48.622 Y-58.811 E54.53953
G1 X-48.354 Y-59.308 E54.5677
G1 X-48.018 Y-59.763 E54.59592
G1 X-47.621 Y-60.166 E54.62415
G1 X-47.171 Y-60.508 E54.65234
G1 X-46.678 Y-60.784 E54.68053
G1 X-46.15 Y-60.988 E54.70877
G1 X-45.6 Y-61.115 E54.73693
G1 X-44.977 Y-61.164 E54.76811
G1 X44.979 Y-61.165 E59.25603
G1 X45.543 Y-61.125 E59.28424
G1 X46.096 Y-61.006 E59.31246
G1 X46.626 Y-60.81 E59.34066
G1 X47.123 Y-60.542 E59.36883
G1 X47.578 Y-60.206 E59.39705
G1 X47.981 Y-59.809 E59.42527
G1 X48.323 Y-59.359 E59.45347
G1 X48.599 Y-58.866 E59.48166
G1 X48.803 Y-58.338 E59.50989
G1 X48.93 Y-57.788 E59.53806
G1 X48.979 Y-57.165 E59.56923
G1 X48.975 Y57.116 E65.27074
G0 F3000 X48.575 Y57.116
G1 F1500 X48.535 Y57.651 E65.2975
G1 X48.416 Y58.174 E65.32426
G1 X48.221 Y58.673 E65.35099
G1 X47.953 Y59.138 E65.37777
G1 X47.62 Y59.558 E65.40451
G1 X47.228 Y59.924 E65.43126
G1 X46.786 Y60.228 E65.45803
G1 X46.303 Y60.462 E65.4848
G1 X45.792 Y60.622 E65.51152
G1 X45.262 Y60.705 E65.53828
G1 X44.975 Y60.716 E65.55261
G1 X-44.979 Y60.716 E70.04043
G1 X-45.514 Y60.676 E70.0672
G1 X-46.037 Y60.557 E70.09396
G1 X-46.536 Y60.362 E70.12069
G1 X-47.001 Y60.094 E70.14746
G1 X-47.421 Y59.761 E70.1742
G1 X-47.787 Y59.369 E70.20096
G1 X-48.09 Y58.927 E70.2277
G1 X-48.325 Y58.444 E70.25449
G1 X-48.485 Y57.933 E70.28121
G1 X-48.568 Y57.403 E70.30797
G1 X-48.579 Y57.116 E70.3223
G1 X-48.577 Y-57.164 E76.02375
G1 X-48.537 Y-57.699 E76.05052
G1 X-48.418 Y-58.222 E76.07728
G1 X-48.223 Y-58.721 E76.10401
G1 X-47.955 Y-59.186 E76.13078
G1 X-47.622 Y-59.606 E76.15752
G1 X-47.23 Y-59.972 E76.18428
G1 X-46.788 Y-60.275 E76.21102
G1 X-46.305 Y-60.51 E76.23781
G1 X-45.794 Y-60.67 E76.26453
G1 X-45.264 Y-60.753 E76.29129
G1 X-44.977 Y-60.764 E76.30562
G1 X44.979 Y-60.765 E80.79354
G1 X45.514 Y-60.725 E80.82031
G1 X46.037 Y-60.606 E80.84707
G1 X46.536 Y-60.411 E80.8738
G1 X47.001 Y-60.143 E80.90057
G1 X47.421 Y-59.81 E80.92732
G1 X47.787 Y-59.418 E80.95407
G1 X48.09 Y-58.976 E80.98081
G1 X48.325 Y-58.493 E81.0076
G1 X48.485 Y-57.982 E81.03432
G1 X48.568 Y-57.452 E81.06108
G1 X48.579 Y-57.165 E81.07541
G1 X48.575 Y57.116 E86.77691
G0 F3000 X48.175 Y57.116
G1 F1500 X48.135 Y57.62 E86.80214
G1 X48.016 Y58.112 E86.82739
G1 X47.821 Y58.578 E86.85259
G1 X47.556 Y59.008 E86.87779
G1 X47.225 Y59.391 E86.90305
G1 X46.839 Y59.717 E86.92826
G1 X46.406 Y59.978 E86.95348
G1 X45.938 Y60.168 E86.97868
G1 X45.445 Y60.281 E87.00391
G1 X44.975 Y60.316 E87.02743
G1 X-44.979 Y60.316 E91.51525
G1 X-45.483 Y60.276 E91.54047
G1 X-45.974 Y60.157 E91.56568
G1 X-46.441 Y59.963 E91.59091
G1 X-46.871 Y59.697 E91.61613
G1 X-47.254 Y59.367 E91.64135
G1 X-47.58 Y58.98 E91.6666
G1 X-47.841 Y58.547 E91.69182
G1 X-48.031 Y58.079 E91.71702
G1 X-48.144 Y57.586 E91.74226
G1 X-48.179 Y57.116 E91.76577
G1 X-48.177 Y-57.164 E97.46722
G1 X-48.137 Y-57.668 E97.49245
G1 X-48.018 Y-58.159 E97.51765
G1 X-47.823 Y-58.626 E97.5429
G1 X-47.558 Y-59.056 E97.5681
G1 X-47.228 Y-59.439 E97.59332
G1 X-46.841 Y-59.765 E97.61857
G1 X-46.408 Y-60.026 E97.64379
G1 X-45.94 Y-60.216 E97.66899
G1 X-45.447 Y-60.329 E97.69422
G1 X-44.977 Y-60.364 E97.71774
G1 X44.979 Y-60.365 E102.20566
G1 X45.483 Y-60.325 E102.23088
G1 X45.974 Y-60.206 E102.25609
G1 X46.441 Y-60.012 E102.28132
G1 X46.871 Y-59.746 E102.30654
G1 X47.254 Y-59.416 E102.33177
G1 X47.58 Y-59.029 E102.35701
G1 X47.841 Y-58.596 E102.38223
G1 X48.031 Y-58.128 E102.40743
G1 X48.144 Y-57.635 E102.43267
G1 X48.179 Y-57.165 E102.45618
G1 X48.175 Y57.116 E108.15768
G0 F3000 X44.387 Y56.525
;TYPE:WALL-INNER
G1 F1500 X-44.188 Y56.525 E112.57671
G1 X-44.388 Y56.525 E112.58668
G1 X-44.388 Y56.325 E112.59315
G1 X-44.387 Y-56.575 E118.22575
G1 X44.188 Y-56.575 E122.64477
G1 X44.388 Y-56.575 E122.65475
G1 X44.388 Y-56.375 E122.66121
G1 X44.387 Y56.525 E128.29382
G0 F3000 X44.787 Y56.925
;TYPE:WALL-OUTER
G1 F1500 X-44.588 Y56.925 E132.75275
G1 X-44.788 Y56.925 E132.76273
G1 X-44.788 Y56.725 E132.76919
G1 X-44.787 Y-56.975 E138.44171
G1 X44.588 Y-56.975 E142.90065
G1 X44.788 Y-56.975 E142.91062
G1 X44.788 Y-56.775 E142.91708
G1 X44.787 Y56.925 E148.5896
G0 F3000 X44.587 Y56.925
G0 X44.317 Y56.455
G0 X-44.188 Y56.325
G0 X-43.954 Y56.171
;TYPE:SKIN
G1 F1500 X-43.388 Y56.171 E148.61784
G1 X-44.035 Y55.524 E148.66349
G1 X-44.035 Y54.959 E148.69168
G1 X-42.823 Y56.171 E148.77719
G1 X-42.257 Y56.171 E148.80543
G1 X-44.035 Y54.393 E148.93087
G1 X-44.035 Y53.827 E148.95911
G1 X-41.691 Y56.171 E149.12449
G1 X-41.126 Y56.171 E149.15268
G1 X-44.035 Y53.262 E149.35793
G1 X-44.035 Y52.696 E149.38617
G1 X-40.56 Y56.171 E149.63135
G1 X-39.994 Y56.171 E149.65958
G1 X-44.035 Y52.13 E149.9447
G1 X-44.035 Y51.565 E149.97289
G1 X-39.428 Y56.171 E150.2979
G1 X-38.863 Y56.171 E150.32609
G1 X-44.035 Y50.999 E150.691
G1 X-44.035 Y50.433 E150.71924
G1 X-38.297 Y56.171 E151.12408
G1 X-37.731 Y56.171 E151.15232
G1 X-44.035 Y49.867 E151.5971
G1 X-44.035 Y49.302 E151.62529
G1 X-37.166 Y56.171 E152.10994
G1 X-36.6 Y56.171 E152.13817
G1 X-44.035 Y48.736 E152.66275
G1 X-44.035 Y48.17 E152.69099
G1 X-36.034 Y56.171 E153.25551
G1 X-35.469 Y56.171 E153.28369
G1 X-44.035 Y47.605 E153.88807
G1 X-44.035 Y47.039 E153.91631
G1 X-34.903 Y56.171 E154.56062
G1 X-34.337 Y56.171 E154.58886
G1 X-44.035 Y46.473 E155.2731
G1 X-44.035 Y45.908 E155.30129
G1 X-33.772 Y56.171 E156.0254
G1 X-33.206 Y56.171 E156.05364
G1 X-44.035 Y45.342 E156.81768
G1 X-44.035 Y44.776 E156.84592
G1 X-32.64 Y56.171 E157.6499
G1 X-32.075 Y56.171 E157.67809
G1 X-44.035 Y44.211 E158.52193
G1 X-44.035 Y43.645 E158.55017
G1 X-31.509 Y56.171 E159.43395
G1 X-30.943 Y56.171 E159.46218
G1 X-44.035 Y43.079 E160.3859
G1 X-44.035 Y42.514 E160.41408
G1 X-30.378 Y56.171 E161.37766
G1 X-29.812 Y56.171 E161.4059
G1 X-44.035 Y41.948 E162.40941
G1 X-44.035 Y41.382 E162.43764
G1 X-29.246 Y56.171 E163.48109
G1 X-28.68 Y56.171 E163.50933
G1 X-44.035 Y40.817 E164.59267
G1 X-44.035 Y40.251 E164.62091
G1 X-28.115 Y56.171 E165.74415
G1 X-27.549 Y56.171 E165.77239
G1 X-44.035 Y39.685 E166.93556
G1 X-44.035 Y39.119 E166.9638
G1 X-26.983 Y56.171 E168.16691
G1 X-26.418 Y56.171 E168.1951
G1 X-44.035 Y38.554 E169.43807
G1 X-44.035 Y37.988 E169.46631
G1 X-25.852 Y56.171 E170.74922
G1 X-25.286 Y56.171 E170.77746
G1 X-44.035 Y37.422 E172.1003
G1 X-44.035 Y36.857 E172.12849
G1 X-24.721 Y56.171 E173.4912
G1 X-24.155 Y56.171 E173.51943
G1 X-44.035 Y36.291 E174.92208
G1 X-44.035 Y35.725 E174.95031
G1 X-23.589 Y56.171 E176.39289
G1 X-23.024 Y56.171 E176.42108
G1 X-44.035 Y35.16 E177.90352
G1 X-44.035 Y34.594 E177.93175
G1 X-22.458 Y56.171 E179.45413
G1 X-21.892 Y56.171 E179.48237
G1 X-44.035 Y34.028 E181.04467
G1 X-44.035 Y33.463 E181.07286
G1 X-21.327 Y56.171 E182.67503
G1 X-20.761 Y56.171 E182.70327
G1 X-44.035 Y32.897 E184.34538
G1 X-44.035 Y32.331 E184.37362
G1 X-20.195 Y56.171 E186.05566
G1 X-19.629 Y56.171 E186.0839
G1 X-44.035 Y31.766 E187.80584
G1 X-44.035 Y31.2 E187.83407
G1 X-19.064 Y56.171 E189.59591
G1 X-18.498 Y56.171 E189.62415
G1 X-44.035 Y30.634 E191.42592
G1 X-44.035 Y30.069 E191.45411
G1 X-17.932 Y56.171 E193.29578
G1 X-17.367 Y56.171 E193.32397
G1 X-44.035 Y29.503 E195.20554
G1 X-44.035 Y28.937 E195.23378
G1 X-16.801 Y56.171 E197.15529
G1 X-16.235 Y56.171 E197.18352
G1 X-44.035 Y28.371 E199.14496
G1 X-44.035 Y27.806 E199.17315
G1 X-15.67 Y56.171 E201.17446
G1 X-15.104 Y56.171 E201.20269
G1 X-44.035 Y27.24 E203.24393
G1 X-44.035 Y26.674 E203.27217
G1 X-14.538 Y56.171 E205.35334
G1 X-13.973 Y56.171 E205.38153
G1 X-44.035 Y26.109 E207.50257
G1 X-44.035 Y25.543 E207.53081
G1 X-13.407 Y56.171 E209.69178
G1 X-12.841 Y56.171 E209.72001
G1 X-44.035 Y24.977 E211.92092
G1 X-44.035 Y24.412 E211.94911
G1 X-12.276 Y56.171 E214.18988
G1 X-11.71 Y56.171 E214.21811
G1 X-44.035 Y23.846 E216.49882
G1 X-44.035 Y23.28 E216.52706
G1 X-11.144 Y56.171 E218.84769
G1 X-10.579 Y56.171 E218.87588
G1 X-44.035 Y22.715 E221.23638
G1 X-44.035 Y22.149 E221.26462
G1 X-10.013 Y56.171 E223.66506
G1 X-9.447 Y56.171 E223.69329
G1 X-44.035 Y21.583 E226.13366
G1 X-44.035 Y21.018 E226.16185
G1 X-8.881 Y56.171 E228.64212
G1 X-8.316 Y56.171 E228.67031
G1 X-44.035 Y20.452 E231.19048
G1 X-44.035 Y19.886 E231.21872
G1 X-7.75 Y56.171 E233.77882
G1 X-7.184 Y56.171 E233.80706
G1 X-44.035 Y19.32 E236.40709
G1 X-44.035 Y18.755 E236.43528
G1 X-6.619 Y56.171 E239.07518
G1 X-6.053 Y56.171 E239.10342
G1 X-44.035 Y18.189 E241.78326
G1 X-44.035 Y17.623 E241.81149
G1 X-5.487 Y56.171 E244.53126
G1 X-4.922 Y56.171 E244.55945
G1 X-44.035 Y17.058 E247.31908
G1 X-44.035 Y16.492 E247.34732
G1 X-4.356 Y56.171 E250.14689
G1 X-3.79 Y56.171 E250.17513
G1 X-44.035 Y15.926 E253.01463
G1 X-44.035 Y15.361 E253.04282
G1 X-3.225 Y56.171 E255.92218
G1 X-2.659 Y56.171 E255.95042
G1 X-44.035 Y14.795 E258.86972
G1 X-44.035 Y14.229 E258.89796
G1 X-2.093 Y56.171 E261.85719
G1 X-1.528 Y56.171 E261.88538
G1 X-44.035 Y13.664 E264.88448
G1 X-44.035 Y13.098 E264.91272
G1 X-.962 Y56.171 E267.95175
G1 X-.396 Y56.171 E267.97999
G1 X-44.035 Y12.532 E271.05896
G1 X-44.035 Y11.967 E271.08714
G1 X0.168 Y56.171 E274.20594
G1 X0.734 Y56.171 E274.23418
G1 X-44.035 Y11.401 E277.39291
G1 X-44.035 Y10.835 E277.42115
G1 X1.3 Y56.171 E280.61981
G1 X1.866 Y56.171 E280.64805
G1 X-44.035 Y10.27 E283.88661
G1 X-44.035 Y9.704 E283.91485
G1 X2.431 Y56.171 E287.19331
G1 X2.997 Y56.171 E287.22155
G1 X-44.035 Y9.138 E290.53995
G1 X-44.035 Y8.572 E290.56818
G1 X3.563 Y56.171 E293.92652
G1 X4.128 Y56.171 E293.9547
G1 X-44.035 Y8.007 E297.3529
G1 X-44.035 Y7.441 E297.38114
G1 X4.694 Y56.171 E300.81927
G1 X5.26 Y56.171 E300.8475
G1 X-44.035 Y6.875 E304.32557
G1 X-44.035 Y6.31 E304.35376
G1 X5.825 Y56.171 E307.87168
G1 X6.391 Y56.171 E307.89992
G1 X-44.035 Y5.744 E311.45778
G1 X-44.035 Y5.178 E311.48602
G1 X6.957 Y56.171 E315.08382
G1 X7.522 Y56.171 E315.11201
G1 X-44.035 Y4.613 E318.74967
G1 X-44.035 Y4.047 E318.7779
G1 X8.088 Y56.171 E322.4555
G1 X8.654 Y56.171 E322.48374
G1 X-44.035 Y3.481 E326.20126
G1 X-44.035 Y2.916 E326.22945
G1 X9.219 Y56.171 E329.98684
G1 X9.785 Y56.171 E330.01508
G1 X-44.035 Y2.35 E333.81241
G1 X-44.035 Y1.784 E333.84065
G1 X10.351 Y56.171 E337.67791
G1 X10.917 Y56.171 E337.70615
G1 X-44.035 Y1.219 E341.58331
G1 X-44.035 Y0.653 E341.61154
G1 X11.482 Y56.171 E345.5286
G1 X12.048 Y56.171 E345.55684
G1 X-44.035 Y0.087 E349.51384
G1 X-44.035 Y-.478 E349.54202
G1 X12.614 Y56.171 E353.53892
G1 X13.179 Y56.171 E353.5671
G1 X-44.035 Y-1.043 E357.60386
G1 X-44.035 Y-1.609 E357.6321
G1 X13.745 Y56.171 E361.70879
G1 X14.311 Y56.171 E361.73703
G1 X-44.035 Y-2.175 E365.85365
G1 X-44.035 Y-2.74 E365.88184
G1 X14.876 Y56.171 E370.03833
G1 X15.442 Y56.171 E370.06657
G1 X-44.035 Y-3.306 E374.26299
G1 X-44.035 Y-3.872 E374.29123
G1 X16.008 Y56.171 E378.52759
G1 X16.573 Y56.171 E378.55578
G1 X-44.035 Y-4.437 E382.832
G1 X-44.035 Y-5.003 E382.86024
G1 X17.139 Y56.171 E387.17639
G1 X17.705 Y56.171 E387.20463
G1 X-44.035 Y-5.569 E391.56072
G1 X-44.035 Y-6.134 E391.58891
G1 X18.27 Y56.171 E395.98486
G1 X18.836 Y56.171 E396.0131
G1 X-44.035 Y-6.7 E400.44899
G1 X-44.035 Y-7.266 E400.47723
G1 X19.402 Y56.171 E404.95305
G1 X19.967 Y56.171 E404.98124
G1 X-44.035 Y-7.831 E409.49692
G1 X-44.035 Y-8.397 E409.52516
G1 X20.533 Y56.171 E414.08078
G1 X21.099 Y56.171 E414.10902
G1 X-44.035 Y-8.963 E418.70458
G1 X-44.035 Y-9.528 E418.73276
G1 X21.665 Y56.171 E423.36822
G1 X22.23 Y56.171 E423.39641
G1 X-44.035 Y-10.094 E428.07176
G1 X-44.035 Y-10.66 E428.1
G1 X22.796 Y56.171 E432.81529
G1 X23.362 Y56.171 E432.84352
G1 X-44.035 Y-11.226 E437.59875
G1 X-44.035 Y-11.791 E437.62694
G1 X23.927 Y56.171 E442.42202
G1 X24.493 Y56.171 E442.45026
G1 X-44.035 Y-12.357 E447.28528
G1 X-44.035 Y-12.923 E447.31352
G1 X25.059 Y56.171 E452.18847
G1 X25.624 Y56.171 E452.21666
G1 X-44.035 Y-13.488 E457.13148
G1 X-44.035 Y-14.054 E457.15972
G1 X26.19 Y56.171 E462.11447
G1 X26.756 Y56.171 E462.14271
G1 X-44.035 Y-14.62 E467.1374
G1 X-44.035 Y-15.185 E467.16558
