;FLAVOR:Marlin
;TIME:1389
;Filament used: 2.1628m
;Layer height: 0.3
;Generated with Cura_SteamEngine 1.2.3
M140 S60
M104 S230
M109 S230
G28
G1 Z50.00 F400
G92 E0
G1 F200 E3
G92 E0
M132 X Y Z A
M907 X100 Y100 Z50 A100
;LAYER_COUNT:50
;LAYER:0
M107
M204 S2000
G0 F3000 X1.011 Y12.692 Z0.3
;TYPE:SKIRT
G1 F1500 X-5.379 Y12.799 E0.31884
G1 X-5.464 Y12.8 E0.32308
G1 X-15.714 Y12.79 E0.83446
G1 X-15.864 Y12.788 E0.84194
G1 X-19.691 Y12.665 E1.03297
G1 X-26.564 Y12.799 E1.37593
G1 X-26.662 Y12.8 E1.38082
G1 X-36.923 Y12.791 E1.89275
G1 X-37.541 Y12.75 E1.92364
G1 X-38.149 Y12.631 E1.95455
G1 X-38.736 Y12.434 E1.98544
G1 X-39.293 Y12.163 E2.01635
G1 X-39.81 Y11.822 E2.04725
G1 X-40.28 Y11.418 E2.07817
G1 X-40.693 Y10.957 E2.10905
G1 X-41.044 Y10.446 E2.13997
G1 X-41.325 Y9.895 E2.17083
G1 X-41.534 Y9.312 E2.20173
G1 X-41.665 Y8.706 E2.23266
G1 X-41.719 Y7.991 E2.26844
G1 X-41.719 Y-7.991 E3.06578
G1 X-41.679 Y-8.609 E3.09668
G1 X-41.56 Y-9.217 E3.12759
G1 X-41.363 Y-9.804 E3.15848
G1 X-41.093 Y-10.361 E3.18936
G1 X-40.753 Y-10.879 E3.22027
G1 X-40.349 Y-11.349 E3.25119
G1 X-39.888 Y-11.762 E3.28207
G1 X-39.378 Y-12.113 E3.31296
G1 X-38.827 Y-12.396 E3.34386
G1 X-38.244 Y-12.605 E3.37476
G1 X-37.638 Y-12.737 E3.4057
G1 X-36.884 Y-12.791 E3.44342
G1 X-19.618 Y-12.664 E4.30484
G1 X-13.541 Y-12.799 E4.6081
G1 X-13.434 Y-12.8 E4.61344
G1 X-7.816 Y-12.8 E4.89372
G1 X-7.728 Y-12.799 E4.89811
G1 X-1.83 Y-12.691 E5.19242
G1 X4.594 Y-12.799 E5.51296
G1 X4.698 Y-12.8 E5.51814
G1 X16.095 Y-12.742 E6.08675
G1 X16.224 Y-12.74 E6.09319
G1 X19.141 Y-12.647 E6.23879
G1 X26.56 Y-12.799 E6.609
G1 X26.663 Y-12.8 E6.61414
G1 X36.924 Y-12.79 E7.12607
G1 X37.542 Y-12.749 E7.15697
G1 X38.149 Y-12.63 E7.18783
G1 X38.737 Y-12.433 E7.21876
G1 X39.293 Y-12.162 E7.24962
G1 X39.811 Y-11.821 E7.28056
G1 X40.28 Y-11.417 E7.31145
G1 X40.693 Y-10.956 E7.34233
G1 X41.044 Y-10.445 E7.37325
G1 X41.326 Y-9.893 E7.40418
G1 X41.534 Y-9.31 E7.43506
G1 X41.665 Y-8.705 E7.46594
G1 X41.719 Y-7.99 E7.50172
G1 X41.719 Y7.991 E8.29901
G1 X41.679 Y8.609 E8.32991
G1 X41.56 Y9.217 E8.36082
G1 X41.363 Y9.804 E8.39171
G1 X41.093 Y10.361 E8.42259
G1 X40.753 Y10.879 E8.4535
G1 X40.349 Y11.349 E8.48442
G1 X39.888 Y11.762 E8.5153
G1 X39.378 Y12.113 E8.54619
G1 X38.827 Y12.396 E8.57709
G1 X38.244 Y12.605 E8.60799
G1 X37.638 Y12.737 E8.63893
G1 X36.923 Y12.791 E8.67471
G1 X27.039 Y12.8 E9.16782
G1 X26.882 Y12.798 E9.17566
G1 X22.131 Y12.647 E9.4128
G1 X14.712 Y12.799 E9.78302
G1 X14.609 Y12.8 E9.78816
G1 X4.353 Y12.79 E10.29983
G1 X4.214 Y12.788 E10.30677
G1 X1.011 Y12.692 E10.46664
G0 F3000 X1.016 Y12.292
G1 F1500 X-5.385 Y12.399 E10.78603
G1 X-5.463 Y12.4 E10.78992
G1 X-15.713 Y12.39 E11.30129
G1 X-15.851 Y12.388 E11.30818
G1 X-19.686 Y12.264 E11.49961
G1 X-26.572 Y12.399 E11.84322
G1 X-26.662 Y12.4 E11.84771
G1 X-36.923 Y12.391 E12.35963
G1 X-37.514 Y12.351 E12.38918
G1 X-38.095 Y12.231 E12.41878
G1 X-38.655 Y12.034 E12.4484
G1 X-39.182 Y11.764 E12.47794
G1 X-39.669 Y11.426 E12.50752
G1 X-40.106 Y11.025 E12.53711
G1 X-40.485 Y10.568 E12.56673
G1 X-40.799 Y10.066 E12.59627
G1 X-41.043 Y9.525 E12.62588
G1 X-41.212 Y8.957 E12.65544
G1 X-41.303 Y8.371 E12.68503
G1 X-41.319 Y7.991 E12.704
G1 X-41.319 Y-7.991 E13.50135
G1 X-41.279 Y-8.583 E13.53095
G1 X-41.16 Y-9.163 E13.56049
G1 X-40.964 Y-9.723 E13.59009
G1 X-40.694 Y-10.251 E13.61968
G1 X-40.356 Y-10.738 E13.64925
G1 X-39.955 Y-11.175 E13.67884
G1 X-39.5 Y-11.555 E13.70842
G1 X-38.997 Y-11.869 E13.738
G1 X-38.457 Y-12.114 E13.76758
G1 X-37.888 Y-12.283 E13.7972
G1 X-37.303 Y-12.374 E13.82673
G1 X-36.887 Y-12.391 E13.84751
G1 X-19.612 Y-12.263 E14.70938
G1 X-13.532 Y-12.399 E15.01279
G1 X-13.434 Y-12.4 E15.01768
G1 X-7.816 Y-12.4 E15.29796
G1 X-7.736 Y-12.399 E15.30195
G1 X-1.832 Y-12.291 E15.59656
G1 X4.6 Y-12.399 E15.91749
G1 X4.696 Y-12.4 E15.92228
G1 X16.093 Y-12.342 E16.49089
G1 X16.212 Y-12.34 E16.49683
G1 X19.137 Y-12.246 E16.64283
G1 X26.568 Y-12.399 E17.01364
G1 X26.662 Y-12.4 E17.01833
G1 X36.923 Y-12.39 E17.53026
G1 X37.515 Y-12.349 E17.55986
G1 X38.096 Y-12.23 E17.58945
G1 X38.655 Y-12.033 E17.61902
G1 X39.183 Y-11.763 E17.64861
G1 X39.67 Y-11.424 E17.67821
G1 X40.106 Y-11.023 E17.70776
G1 X40.485 Y-10.567 E17.73735
G1 X40.799 Y-10.064 E17.76693
G1 X41.043 Y-9.524 E17.79649
G1 X41.212 Y-8.955 E17.82611
G1 X41.303 Y-8.369 E17.85569
G1 X41.319 Y-7.99 E17.87462
G1 X41.319 Y7.991 E18.67191
G1 X41.279 Y8.583 E18.70152
G1 X41.16 Y9.163 E18.73105
G1 X40.964 Y9.723 E18.76065
G1 X40.694 Y10.251 E18.79024
G1 X40.356 Y10.738 E18.81982
G1 X39.955 Y11.175 E18.84941
G1 X39.5 Y11.555 E18.87898
G1 X38.997 Y11.869 E18.90856
G1 X38.457 Y12.114 E18.93815
G1 X37.888 Y12.283 E18.96776
G1 X37.303 Y12.374 E18.9973
G1 X36.923 Y12.391 E19.01628
G1 X27.039 Y12.4 E19.50939
G1 X26.895 Y12.398 E19.51658
G1 X22.136 Y12.246 E19.75412
G1 X14.704 Y12.399 E20.12499
G1 X14.61 Y12.4 E20.12968
G1 X4.354 Y12.39 E20.64135
G1 X4.226 Y12.388 E20.64774
G1 X1.016 Y12.292 E20.80796
G0 F3000 X1.021 Y11.892
G1 F1500 X-5.392 Y11.999 E21.12795
G1 X-5.463 Y12 E21.13149
G1 X-15.713 Y11.99 E21.64286
G1 X-15.838 Y11.988 E21.6491
G1 X-19.681 Y11.864 E21.84093
G1 X-26.58 Y11.999 E22.18519
G1 X-26.662 Y12 E22.18928
G1 X-36.923 Y11.991 E22.7012
G1 X-37.486 Y11.951 E22.72936
G1 X-38.039 Y11.831 E22.75759
G1 X-38.569 Y11.635 E22.78578
G1 X-39.066 Y11.366 E22.81398
G1 X-39.521 Y11.029 E22.84223
G1 X-39.923 Y10.632 E22.87041
G1 X-40.265 Y10.182 E22.89861
G1 X-40.541 Y9.689 E22.9268
G1 X-40.744 Y9.161 E22.95502
G1 X-40.871 Y8.61 E22.98323
G1 X-40.919 Y7.991 E23.01421
G1 X-40.919 Y-7.991 E23.81155
G1 X-40.879 Y-8.555 E23.83976
G1 X-40.76 Y-9.108 E23.86798
G1 X-40.564 Y-9.638 E23.89618
G1 X-40.296 Y-10.135 E23.92435
G1 X-39.96 Y-10.59 E23.95256
G1 X-39.563 Y-10.993 E23.98079
G1 X-39.113 Y-11.335 E24.00899
G1 X-38.62 Y-11.611 E24.03717
G1 X-38.092 Y-11.815 E24.06541
G1 X-37.542 Y-11.942 E24.09358
G1 X-36.889 Y-11.991 E24.12625
G1 X-19.606 Y-11.863 E24.98852
G1 X-13.523 Y-11.999 E25.29208
G1 X-13.434 Y-12 E25.29652
G1 X-7.816 Y-12 E25.5768
G1 X-7.743 Y-11.999 E25.58045
G1 X-1.832 Y-11.891 E25.8754
G1 X4.607 Y-11.999 E26.19668
G1 X4.694 Y-12 E26.20102
G1 X16.091 Y-11.942 E26.76963
G1 X16.199 Y-11.94 E26.77502
G1 X19.132 Y-11.846 E26.92142
G1 X26.576 Y-11.999 E27.29288
G1 X26.662 Y-12 E27.29717
G1 X36.923 Y-11.99 E27.8091
G1 X37.487 Y-11.949 E27.83731
G1 X38.039 Y-11.83 E27.86548
G1 X38.569 Y-11.634 E27.89367
G1 X39.067 Y-11.365 E27.92191
G1 X39.521 Y-11.028 E27.95012
G1 X39.923 Y-10.631 E27.97831
G1 X40.266 Y-10.181 E28.00654
G1 X40.541 Y-9.687 E28.03474
G1 X40.744 Y-9.16 E28.06292
G1 X40.871 Y-8.609 E28.09113
G1 X40.919 Y-7.99 E28.1221
G1 X40.919 Y7.991 E28.9194
G1 X40.879 Y8.555 E28.94761
G1 X40.76 Y9.108 E28.97583
G1 X40.564 Y9.638 E29.00402
G1 X40.296 Y10.135 E29.03219
G1 X39.96 Y10.59 E29.06041
G1 X39.563 Y10.993 E29.08863
G1 X39.113 Y11.335 E29.11683
G1 X38.62 Y11.611 E29.14502
G1 X38.092 Y11.815 E29.17326
G1 X37.542 Y11.942 E29.20142
G1 X36.923 Y11.991 E29.2324
G1 X27.039 Y12 E29.72552
G1 X26.908 Y11.998 E29.73205
G1 X22.141 Y11.846 E29.97
G1 X14.696 Y11.999 E30.34151
G1 X14.61 Y12 E30.3458
G1 X4.354 Y11.99 E30.85748
G1 X4.238 Y11.988 E30.86326
G1 X1.021 Y11.892 E31.02383
G0 F3000 X1.027 Y11.491
G1 F1500 X-5.399 Y11.599 E31.34447
G1 X-5.463 Y11.6 E31.34766
G1 X-15.713 Y11.59 E31.85904
G1 X-15.825 Y11.588 E31.86463
G1 X-19.675 Y11.464 E32.0568
G1 X-26.588 Y11.599 E32.40176
G1 X-26.661 Y11.6 E32.4054
G1 X-36.922 Y11.591 E32.91733
G1 X-37.457 Y11.551 E32.94409
G1 X-37.98 Y11.431 E32.97086
G1 X-38.479 Y11.235 E32.99761
G1 X-38.944 Y10.968 E33.02436
G1 X-39.363 Y10.634 E33.05109
G1 X-39.729 Y10.241 E33.07789
G1 X-40.032 Y9.799 E33.10462
G1 X-40.266 Y9.317 E33.13135
G1 X-40.426 Y8.805 E33.15812
G1 X-40.508 Y8.275 E33.18487
G1 X-40.519 Y7.991 E33.19905
G1 X-40.519 Y-7.991 E33.9964
G1 X-40.479 Y-8.526 E34.02316
G1 X-40.36 Y-9.049 E34.04992
G1 X-40.165 Y-9.548 E34.07665
G1 X-39.897 Y-10.013 E34.10343
G1 X-39.564 Y-10.433 E34.13017
G1 X-39.172 Y-10.799 E34.15692
G1 X-38.73 Y-11.102 E34.18366
G1 X-38.247 Y-11.337 E34.21046
G1 X-37.736 Y-11.497 E34.23717
G1 X-37.206 Y-11.58 E34.26394
G1 X-36.892 Y-11.591 E34.27961
G1 X-19.6 Y-11.463 E35.14234
G1 X-13.514 Y-11.599 E35.44604
G1 X-13.434 Y-11.6 E35.45003
G1 X-7.816 Y-11.6 E35.73032
G1 X-7.75 Y-11.599 E35.73361
G1 X-1.832 Y-11.491 E36.02891
G1 X4.614 Y-11.599 E36.35055
G1 X4.692 Y-11.6 E36.35444
G1 X16.089 Y-11.542 E36.92305
G1 X16.186 Y-11.54 E36.92789
G1 X19.127 Y-11.446 E37.07469
G1 X26.584 Y-11.599 E37.4468
G1 X26.662 Y-11.6 E37.45069
G1 X36.923 Y-11.59 E37.96261
G1 X37.457 Y-11.55 E37.98933
G1 X37.98 Y-11.43 E38.0161
G1 X38.479 Y-11.234 E38.04285
G1 X38.944 Y-10.966 E38.06962
G1 X39.364 Y-10.633 E38.09636
G1 X39.729 Y-10.24 E38.12312
G1 X40.032 Y-9.798 E38.14986
G1 X40.266 Y-9.315 E38.17663
G1 X40.426 Y-8.803 E38.2034
G1 X40.508 Y-8.273 E38.23015
G1 X40.519 Y-7.99 E38.24428
G1 X40.519 Y7.991 E39.04158
G1 X40.479 Y8.526 E39.06834
G1 X40.36 Y9.049 E39.0951
G1 X40.165 Y9.548 E39.12183
G1 X39.897 Y10.013 E39.14861
G1 X39.564 Y10.433 E39.17535
G1 X39.172 Y10.799 E39.2021
G1 X38.73 Y11.102 E39.22884
G1 X38.247 Y11.337 E39.25564
G1 X37.736 Y11.497 E39.28235
G1 X37.206 Y11.58 E39.30912
G1 X36.922 Y11.591 E39.32329
G1 X27.038 Y11.6 E39.81641
G1 X26.92 Y11.598 E39.8223
G1 X22.145 Y11.446 E40.06064
G1 X14.688 Y11.599 E40.43275
G1 X14.61 Y11.6 E40.43665
G1 X4.354 Y11.59 E40.94832
G1 X4.25 Y11.588 E40.95351
G1 X1.027 Y11.491 E41.11438
G0 F3000 X1.032 Y11.092
G1 F1500 X-5.405 Y11.2 E41.43557
G1 X-5.462 Y11.2 E41.43841
G1 X-15.712 Y11.19 E41.94979
G1 X-15.812 Y11.188 E41.95478
G1 X-19.67 Y11.064 E42.14735
G1 X-26.595 Y11.199 E42.49291
G1 X-26.661 Y11.2 E42.4962
G1 X-36.922 Y11.191 E43.00812
G1 X-37.426 Y11.151 E43.03335
G1 X-37.917 Y11.031 E43.05856
G1 X-38.383 Y10.836 E43.08377
G1 X-38.813 Y10.57 E43.10899
G1 X-39.196 Y10.24 E43.13421
G1 X-39.522 Y9.853 E43.15946
G1 X-39.782 Y9.42 E43.18466
G1 X-39.972 Y8.951 E43.2099
G1 X-40.085 Y8.458 E43.23514
G1 X-40.119 Y7.991 E43.2585
G1 X-40.119 Y-7.991 E44.05584
G1 X-40.079 Y-8.495 E44.08107
G1 X-39.96 Y-8.986 E44.10627
G1 X-39.766 Y-9.453 E44.1315
G1 X-39.5 Y-9.883 E44.15673
G1 X-39.17 Y-10.266 E44.18195
G1 X-38.783 Y-10.592 E44.20719
G1 X-38.35 Y-10.853 E44.23242
G1 X-37.882 Y-11.043 E44.25762
G1 X-37.389 Y-11.156 E44.28285
G1 X-36.895 Y-11.191 E44.30756
G1 X-19.594 Y-11.063 E45.17073
G1 X-13.505 Y-11.199 E45.47459
G1 X-13.434 Y-11.2 E45.47813
G1 X-7.816 Y-11.2 E45.75841
G1 X-7.758 Y-11.199 E45.76131
G1 X-1.862 Y-11.091 E46.05551
G1 X4.62 Y-11.2 E46.37894
G1 X4.69 Y-11.2 E46.38244
G1 X16.087 Y-11.142 E46.95104
G1 X16.173 Y-11.14 E46.95533
G1 X19.122 Y-11.046 E47.10253
G1 X26.592 Y-11.199 E47.47529
G1 X26.661 Y-11.2 E47.47874
G1 X36.922 Y-11.19 E47.99066
G1 X37.426 Y-11.15 E48.01588
G1 X37.917 Y-11.03 E48.0411
G1 X38.384 Y-10.835 E48.06635
G1 X38.814 Y-10.569 E48.09157
G1 X39.196 Y-10.238 E48.11679
G1 X39.522 Y-9.852 E48.142
G1 X39.782 Y-9.418 E48.16724
G1 X39.972 Y-8.95 E48.19244
G1 X40.085 Y-8.457 E48.21767
G1 X40.119 Y-7.99 E48.24103
G1 X40.119 Y7.991 E49.03833
G1 X40.079 Y8.495 E49.06355
G1 X39.96 Y8.986 E49.08876
G1 X39.766 Y9.453 E49.11399
G1 X39.5 Y9.883 E49.13921
G1 X39.17 Y10.266 E49.16443
G1 X38.783 Y10.592 E49.18968
G1 X38.35 Y10.853 E49.2149
G1 X37.882 Y11.043 E49.2401
G1 X37.389 Y11.156 E49.26533
G1 X36.922 Y11.191 E49.2887
G1 X27.038 Y11.2 E49.78181
G1 X26.933 Y11.198 E49.78705
G1 X22.15 Y11.046 E50.0258
G1 X14.68 Y11.199 E50.39856
G1 X14.611 Y11.2 E50.402
G1 X4.355 Y11.19 E50.91367
G1 X4.262 Y11.189 E50.91831
G1 X1.032 Y11.092 E51.07953
G1 F3600 E48.07953
G0 F3000 X3.679 Y7.386
G0 X4.958 Y7.386
G0 X5.014 Y7.33
G0 X4.944 Y7.4
;TYPE:WALL-INNER
G1 F3600 E51.12111
G1 F1500 X4.944 Y-7.4 E51.85948
G1 X6.744 Y-7.4 E51.94928
G1 X6.744 Y5.6 E52.59786
G1 X12.544 Y5.6 E52.88722
G1 X12.544 Y-7.4 E53.53579
G1 X14.344 Y-7.4 E53.6256
G1 X14.344 Y7.4 E54.36397
G1 X4.944 Y7.4 E54.83294
G0 F3000 X7.144 Y5.2
;TYPE:WALL-OUTER
G1 F1500 X12.144 Y5.2 E55.08239
G1 X12.144 Y-7.8 E55.73096
G1 X14.744 Y-7.8 E55.86068
G1 X14.744 Y7.8 E56.63896
G1 X4.544 Y7.8 E57.14784
G1 X4.544 Y-7.8 E57.92613
G1 X7.144 Y-7.8 E58.05585
G1 X7.144 Y5.2 E58.70442
G0 F3000 X7.344 Y5.2
G0 X5.144 Y7.2
G0 X5.349 Y7.047
;TYPE:SKIN
G1 F1500 X5.915 Y7.047 E58.73266
G1 X5.296 Y6.427 E58.77636
G1 X5.296 Y5.861 E58.8046
G1 X6.481 Y7.047 E58.88825
G1 X7.047 Y7.047 E58.91648
G1 X5.296 Y5.296 E59.04003
G1 X5.296 Y4.73 E59.06826
G1 X6.392 Y5.826 E59.14559
G1 X6.392 Y5.26 E59.17383
G1 X5.296 Y4.164 E59.25116
G1 X5.296 Y3.599 E59.27935
G1 X6.392 Y4.695 E59.35668
G1 X6.392 Y4.129 E59.38491
G1 X5.296 Y3.033 E59.46224
G1 X5.296 Y2.467 E59.49048
G1 X6.392 Y3.563 E59.56781
G1 X6.392 Y2.998 E59.596
G1 X5.296 Y1.902 E59.67333
G1 X5.296 Y1.336 E59.70156
G1 X6.392 Y2.432 E59.77889
G1 X6.392 Y1.866 E59.80713
G1 X5.296 Y0.77 E59.88446
G1 X5.296 Y0.205 E59.91265
G1 X6.392 Y1.301 E59.98998
G1 X6.392 Y0.735 E60.01821
G1 X5.296 Y-.36 E60.09551
G1 X5.296 Y-.926 E60.12374
G1 X6.392 Y0.169 E60.20104
G1 X6.392 Y-.395 E60.22918
G1 X5.296 Y-1.491 E60.30651
G1 X5.296 Y-2.057 E60.33474
G1 X6.392 Y-.961 E60.41207
G1 X6.392 Y-1.527 E60.44031
G1 X5.296 Y-2.623 E60.51764
G1 X5.296 Y-3.189 E60.54588
G1 X6.392 Y-2.093 E60.6232
G1 X6.392 Y-2.658 E60.65139
G1 X5.296 Y-3.754 E60.72872
G1 X5.296 Y-4.32 E60.75696
G1 X6.392 Y-3.224 E60.83429
G1 X6.392 Y-3.79 E60.86253
G1 X5.296 Y-4.886 E60.93985
G1 X5.296 Y-5.451 E60.96804
G1 X6.392 Y-4.355 E61.04537
G1 X6.392 Y-4.921 E61.07361
G1 X5.296 Y-6.017 E61.15094
G1 X5.296 Y-6.583 E61.17918
G1 X6.392 Y-5.487 E61.2565
G1 X6.392 Y-6.052 E61.28469
G1 X5.398 Y-7.047 E61.35486
G1 X5.963 Y-7.047 E61.38305
G1 X6.392 Y-6.618 E61.41332
G0 F3000 X6.716 Y5.628
G0 X12.572 Y5.628
G0 X12.895 Y-6.337
G1 F1500 X12.895 Y-6.903 E61.44155
G1 X13.991 Y-5.807 E61.51888
G1 X13.991 Y-6.373 E61.54712
G1 X13.316 Y-7.047 E61.59471
G1 X13.882 Y-7.047 E61.62295
G1 X13.991 Y-6.938 E61.63064
G0 F3000 X12.895 Y-6.337
G1 F1500 X13.991 Y-5.241 E61.70797
G1 X13.991 Y-4.676 E61.73616
G1 X12.895 Y-5.772 E61.81348
G1 X12.895 Y-5.206 E61.84172
G1 X13.991 Y-4.11 E61.91905
G1 X13.991 Y-3.544 E61.94729
G1 X12.895 Y-4.64 E62.02462
G1 X12.895 Y-4.075 E62.05281
G1 X13.991 Y-2.979 E62.13013
G1 X13.991 Y-2.413 E62.15837
G1 X12.895 Y-3.509 E62.2357
G1 X12.895 Y-2.943 E62.26394
G1 X13.991 Y-1.847 E62.34127
G1 X13.991 Y-1.281 E62.3695
G1 X12.895 Y-2.378 E62.44687
G1 X12.895 Y-1.812 E62.47511
G1 X13.991 Y-.716 E62.55244
G1 X13.991 Y-.15 E62.58067
G1 X12.895 Y-1.246 E62.658
G1 X12.895 Y-.68 E62.68624
G1 X13.991 Y0.415 E62.76353
G1 X13.991 Y0.98 E62.79172
G1 X12.895 Y-.115 E62.86901
G1 X12.895 Y0.45 E62.8972
G1 X13.991 Y1.546 E62.97453
G1 X13.991 Y2.112 E63.00277
G1 X12.895 Y1.016 E63.0801
G1 X12.895 Y1.581 E63.10829
G1 X13.991 Y2.677 E63.18561
G1 X13.991 Y3.243 E63.21385
G1 X12.895 Y2.147 E63.29118
G1 X12.895 Y2.713 E63.31942
G1 X13.991 Y3.809 E63.39675
G1 X13.991 Y4.374 E63.42494
G1 X12.895 Y3.278 E63.50226
G1 X12.895 Y3.844 E63.5305
G1 X13.991 Y4.94 E63.60783
G1 X13.991 Y5.506 E63.63607
G1 X12.895 Y4.41 E63.7134
G1 X12.895 Y4.975 E63.74159
G1 X13.991 Y6.071 E63.81891
G1 X13.991 Y6.637 E63.84715
G1 X12.895 Y5.541 E63.92448
G1 X12.895 Y5.951 E63.94494
G1 X12.739 Y5.951 E63.95272
G1 X13.835 Y7.047 E64.03005
G1 X13.269 Y7.047 E64.05829
G1 X12.174 Y5.951 E64.13558
G1 X11.608 Y5.951 E64.16382
G1 X12.703 Y7.047 E64.24111
G1 X12.138 Y7.047 E64.2693
G1 X11.042 Y5.951 E64.34663
G1 X10.477 Y5.951 E64.37481
G1 X11.572 Y7.047 E64.45211
G1 X11.006 Y7.047 E64.48035
G1 X9.911 Y5.951 E64.55764
G1 X9.345 Y5.951 E64.58588
G1 X10.441 Y7.047 E64.66321
G1 X9.875 Y7.047 E64.69144
G1 X8.78 Y5.951 E64.76874
G1 X8.214 Y5.951 E64.79698
G1 X9.309 Y7.047 E64.87427
G1 X8.744 Y7.047 E64.90246
G1 X7.648 Y5.951 E64.97979
G1 X7.083 Y5.951 E65.00797
G1 X8.178 Y7.047 E65.08527
G1 X7.612 Y7.047 E65.1135
G1 X6.517 Y5.951 E65.1908
G1 F3600 E62.1908
G0 F3000 X4.964 Y7.33
G0 X3.679 Y7.33
G0 X-4.972 Y8.661
G0 X-15.886 Y8.661
G0 X-25.663 Y7.33
G0 X-26.948 Y7.33
G0 X-26.998 Y7.33
G0 X-26.928 Y7.4
;TYPE:WALL-INNER
G1 F3600 E65.23237
G1 F1500 X-36.328 Y7.4 E65.70134
G1 X-36.328 Y-7.4 E66.43972
