;FLAVOR:Marlin
;TIME:4244
;Filament used: 7.07111m
;Layer height: 0.3
;Generated with Cura_SteamEngine 1.2.3
M140 S60
M104 S230
M109 S230
G28
G1 Z50.00 F400
G92 E0
G1 F200 E3
G92 E0
M132 X Y Z A
M907 X100 Y100 Z50 A100
;LAYER_COUNT:83
;LAYER:0
M107
M204 S2000
G0 F3000 X1.507 Y21.971 Z0.3
;TYPE:SKIRT
G1 F1500 X-3.909 Y22.051 E0.27023
G1 X-5.947 Y22.158 E0.37205
G1 X-6.195 Y22.165 E0.38443
G1 X-16.299 Y22.175 E0.88852
G1 X-16.509 Y22.171 E0.899
G1 X-23.465 Y21.874 E1.24635
G1 X-28.899 Y21.951 E1.51748
G1 X-32.693 Y22.167 E1.70707
G1 X-32.971 Y22.175 E1.72095
G1 X-43.432 Y22.165 E2.24285
G1 X-44.05 Y22.124 E2.27375
G1 X-44.657 Y22.005 E2.30461
G1 X-45.244 Y21.808 E2.3355
G1 X-45.801 Y21.537 E2.3664
G1 X-46.319 Y21.196 E2.39734
G1 X-46.788 Y20.792 E2.42823
G1 X-47.201 Y20.331 E2.4591
G1 X-47.552 Y19.82 E2.49003
G1 X-47.833 Y19.268 E2.52094
G1 X-48.042 Y18.685 E2.55183
G1 X-48.173 Y18.08 E2.58272
G1 X-48.227 Y17.365 E2.61849
G1 X-48.227 Y-17.366 E4.35123
G1 X-48.187 Y-17.984 E4.38212
G1 X-48.068 Y-18.592 E4.41303
G1 X-47.871 Y-19.179 E4.44392
G1 X-47.601 Y-19.736 E4.4748
G1 X-47.261 Y-20.254 E4.50572
G1 X-46.857 Y-20.724 E4.53664
G1 X-46.396 Y-21.137 E4.56752
G1 X-45.886 Y-21.488 E4.5984
G1 X-45.335 Y-21.771 E4.62931
G1 X-44.752 Y-21.98 E4.66021
G1 X-44.146 Y-22.112 E4.69115
G1 X-43.427 Y-22.166 E4.72712
G1 X-32.632 Y-22.165 E5.26569
G1 X-32.345 Y-22.156 E5.28001
G1 X-28.919 Y-21.951 E5.45124
G1 X-23.49 Y-21.874 E5.72212
G1 X-17.221 Y-22.161 E6.03521
G1 X-17.001 Y-22.166 E6.04619
G1 X-6.212 Y-22.165 E6.58446
G1 X-5.963 Y-22.159 E6.59688
G1 X-3.821 Y-22.048 E6.70389
G1 X1.635 Y-21.973 E6.97612
G1 X6.786 Y-22.171 E7.23329
G1 X6.975 Y-22.175 E7.24272
G1 X17.458 Y-22.164 E7.76572
G1 X17.734 Y-22.156 E7.7795
G1 X20.946 Y-21.968 E7.94002
G1 X26.371 Y-21.891 E8.2107
G1 X32.432 Y-22.161 E8.51338
G1 X32.646 Y-22.166 E8.52406
G1 X43.427 Y-22.165 E9.06193
G1 X44.046 Y-22.125 E9.09288
G1 X44.653 Y-22.006 E9.12374
G1 X45.241 Y-21.809 E9.15467
G1 X45.798 Y-21.539 E9.18556
G1 X46.315 Y-21.199 E9.21643
G1 X46.785 Y-20.795 E9.24735
G1 X47.199 Y-20.334 E9.27826
G1 X47.55 Y-19.823 E9.30919
G1 X47.832 Y-19.272 E9.34007
G1 X48.041 Y-18.689 E9.37097
G1 X48.173 Y-18.084 E9.40186
G1 X48.227 Y-17.365 E9.43783
G1 X48.227 Y17.366 E11.17057
G1 X48.187 Y17.984 E11.20147
G1 X48.068 Y18.592 E11.23238
G1 X47.871 Y19.179 E11.26327
G1 X47.601 Y19.736 E11.29415
G1 X47.261 Y20.254 E11.32506
G1 X46.857 Y20.724 E11.35598
G1 X46.396 Y21.137 E11.38686
G1 X45.886 Y21.488 E11.41775
G1 X45.335 Y21.771 E11.44865
G1 X44.752 Y21.98 E11.47955
G1 X44.146 Y22.112 E11.51049
G1 X43.426 Y22.166 E11.54651
G1 X32.622 Y22.164 E12.08553
G1 X32.342 Y22.156 E12.0995
G1 X29.13 Y21.968 E12.26002
G1 X23.705 Y21.891 E12.53071
G1 X17.644 Y22.161 E12.83339
G1 X17.418 Y22.166 E12.84467
G1 X5.967 Y22.137 E13.41596
G1 X5.797 Y22.134 E13.42445
G1 X1.507 Y21.971 E13.63863
G0 F3000 X1.536 Y21.572
G1 F1500 X-3.936 Y21.652 E13.91166
G1 X-5.968 Y21.759 E14.01317
G1 X-6.196 Y21.765 E14.02455
G1 X-16.3 Y21.775 E14.52864
G1 X-16.492 Y21.771 E14.53823
G1 X-23.453 Y21.474 E14.88583
G1 X-28.904 Y21.551 E15.15781
G1 X-32.716 Y21.768 E15.34829
G1 X-32.97 Y21.775 E15.36097
G1 X-43.431 Y21.765 E15.88287
G1 X-44.023 Y21.724 E15.91248
G1 X-44.604 Y21.605 E15.94207
G1 X-45.163 Y21.408 E15.97164
G1 X-45.691 Y21.138 E16.00122
G1 X-46.178 Y20.799 E16.03083
G1 X-46.614 Y20.398 E16.06038
G1 X-46.993 Y19.942 E16.08996
G1 X-47.307 Y19.439 E16.11954
G1 X-47.551 Y18.899 E16.14911
G1 X-47.72 Y18.33 E16.17872
G1 X-47.811 Y17.744 E16.20831
G1 X-47.827 Y17.365 E16.22723
G1 X-47.827 Y-17.366 E17.95997
G1 X-47.787 Y-17.958 E17.98957
G1 X-47.668 Y-18.538 E18.01911
G1 X-47.472 Y-19.098 E18.04871
G1 X-47.202 Y-19.626 E18.0783
G1 X-46.864 Y-20.113 E18.10787
G1 X-46.463 Y-20.55 E18.13746
G1 X-46.008 Y-20.93 E18.16704
G1 X-45.505 Y-21.244 E18.19662
G1 X-44.965 Y-21.489 E18.2262
G1 X-44.396 Y-21.658 E18.25582
G1 X-43.811 Y-21.749 E18.28535
G1 X-43.427 Y-21.766 E18.30453
G1 X-32.632 Y-21.765 E18.8431
G1 X-32.369 Y-21.757 E18.85622
G1 X-28.927 Y-21.551 E19.02825
G1 X-23.477 Y-21.474 E19.30018
G1 X-17.202 Y-21.761 E19.61357
G1 X-17.001 Y-21.766 E19.6236
G1 X-6.212 Y-21.765 E20.16187
G1 X-5.984 Y-21.759 E20.17325
G1 X-3.848 Y-21.648 E20.27995
G1 X1.626 Y-21.574 E20.55308
G1 X6.801 Y-21.772 E20.81145
G1 X6.975 Y-21.775 E20.82013
G1 X17.458 Y-21.764 E21.34313
G1 X17.711 Y-21.756 E21.35576
G1 X20.918 Y-21.568 E21.51603
G1 X26.366 Y-21.491 E21.78786
G1 X32.45 Y-21.762 E22.09169
G1 X32.646 Y-21.766 E22.10147
G1 X43.427 Y-21.765 E22.63934
G1 X44.019 Y-21.725 E22.66894
G1 X44.6 Y-21.606 E22.69853
G1 X45.159 Y-21.41 E22.72808
G1 X45.688 Y-21.14 E22.75771
G1 X46.175 Y-20.802 E22.78729
G1 X46.612 Y-20.401 E22.81688
G1 X46.991 Y-19.945 E22.84646
G1 X47.306 Y-19.443 E22.87603
G1 X47.55 Y-18.902 E22.90564
G1 X47.719 Y-18.334 E22.9352
G1 X47.81 Y-17.748 E22.96479
G1 X47.827 Y-17.365 E22.98392
G1 X47.827 Y17.366 E24.71665
G1 X47.787 Y17.958 E24.74625
G1 X47.668 Y18.538 E24.77579
G1 X47.472 Y19.098 E24.80539
G1 X47.202 Y19.626 E24.83498
G1 X46.864 Y20.113 E24.86456
G1 X46.463 Y20.55 E24.89415
G1 X46.008 Y20.93 E24.92372
G1 X45.505 Y21.244 E24.9533
G1 X44.965 Y21.489 E24.98289
G1 X44.396 Y21.658 E25.0125
G1 X43.811 Y21.749 E25.04204
G1 X43.426 Y21.766 E25.06126
G1 X32.622 Y21.764 E25.60028
G1 X32.365 Y21.756 E25.61311
G1 X29.158 Y21.568 E25.77338
G1 X23.71 Y21.491 E26.04521
G1 X17.626 Y21.762 E26.34904
G1 X17.419 Y21.766 E26.35937
G1 X5.968 Y21.737 E26.93066
G1 X5.812 Y21.734 E26.93845
G1 X1.536 Y21.572 E27.15193
G0 F3000 X1.545 Y21.171
G1 F1500 X-3.963 Y21.252 E27.42676
G1 X-5.989 Y21.359 E27.52798
G1 X-6.196 Y21.365 E27.53831
G1 X-16.3 Y21.375 E28.0424
G1 X-16.475 Y21.371 E28.05113
G1 X-23.442 Y21.073 E28.39903
G1 X-28.909 Y21.151 E28.67181
G1 X-32.738 Y21.369 E28.86315
G1 X-32.97 Y21.375 E28.87473
G1 X-43.431 Y21.365 E29.39663
G1 X-43.995 Y21.325 E29.42484
G1 X-44.547 Y21.205 E29.45302
G1 X-45.077 Y21.009 E29.48121
G1 X-45.575 Y20.74 E29.50945
G1 X-46.029 Y20.403 E29.53766
G1 X-46.431 Y20.006 E29.56585
G1 X-46.774 Y19.556 E29.59408
G1 X-47.049 Y19.062 E29.62228
G1 X-47.252 Y18.535 E29.65046
G1 X-47.379 Y17.984 E29.67867
G1 X-47.427 Y17.365 E29.70964
G1 X-47.427 Y-17.366 E31.44238
G1 X-47.387 Y-17.93 E31.47059
G1 X-47.268 Y-18.483 E31.49881
G1 X-47.072 Y-19.013 E31.527
G1 X-46.804 Y-19.51 E31.55517
G1 X-46.468 Y-19.965 E31.58339
G1 X-46.071 Y-20.368 E31.61161
G1 X-45.621 Y-20.71 E31.63981
G1 X-45.128 Y-20.986 E31.668
G1 X-44.6 Y-21.19 E31.69624
G1 X-44.05 Y-21.317 E31.7244
G1 X-43.427 Y-21.366 E31.75558
G1 X-32.632 Y-21.365 E32.29414
G1 X-32.393 Y-21.358 E32.30607
G1 X-28.935 Y-21.151 E32.4789
G1 X-23.481 Y-21.074 E32.75103
G1 X-17.184 Y-21.362 E33.06552
G1 X-17.001 Y-21.366 E33.07465
G1 X-6.212 Y-21.365 E33.61292
G1 X-6.004 Y-21.36 E33.6233
G1 X-3.847 Y-21.248 E33.73105
G1 X1.636 Y-21.173 E34.00463
G1 X6.817 Y-21.372 E34.2633
G1 X6.974 Y-21.375 E34.27113
G1 X17.457 Y-21.364 E34.79413
G1 X17.687 Y-21.357 E34.80561
G1 X20.91 Y-21.168 E34.96668
G1 X26.379 Y-21.091 E35.23956
G1 X32.468 Y-21.362 E35.54364
G1 X32.646 Y-21.366 E35.55253
G1 X43.427 Y-21.365 E36.09039
G1 X43.991 Y-21.325 E36.1186
G1 X44.544 Y-21.206 E36.14682
G1 X45.074 Y-21.01 E36.17501
G1 X45.572 Y-20.741 E36.20325
G1 X46.026 Y-20.405 E36.23143
G1 X46.429 Y-20.009 E36.25962
G1 X46.772 Y-19.559 E36.28785
G1 X47.048 Y-19.065 E36.31608
G1 X47.251 Y-18.538 E36.34425
G1 X47.378 Y-17.987 E36.37246
G1 X47.427 Y-17.365 E36.40359
G1 X47.427 Y17.366 E38.13633
G1 X47.387 Y17.93 E38.16454
G1 X47.268 Y18.483 E38.19276
G1 X47.072 Y19.013 E38.22095
G1 X46.804 Y19.51 E38.24912
G1 X46.468 Y19.965 E38.27734
G1 X46.071 Y20.368 E38.30556
G1 X45.621 Y20.71 E38.33376
G1 X45.128 Y20.986 E38.36195
G1 X44.6 Y21.19 E38.39019
G1 X44.05 Y21.317 E38.41835
G1 X43.426 Y21.366 E38.44958
G1 X32.622 Y21.364 E38.98859
G1 X32.389 Y21.357 E39.00022
G1 X29.166 Y21.168 E39.16129
G1 X23.697 Y21.091 E39.43417
G1 X17.608 Y21.362 E39.73825
G1 X17.42 Y21.366 E39.74763
G1 X5.969 Y21.337 E40.31893
G1 X5.827 Y21.334 E40.32601
G1 X1.545 Y21.171 E40.5398
G0 F3000 X1.554 Y20.771
G1 F1500 X-3.965 Y20.852 E40.81517
G1 X-6.011 Y20.96 E40.91739
G1 X-6.196 Y20.965 E40.92662
G1 X-16.3 Y20.975 E41.43071
G1 X-16.458 Y20.972 E41.4386
G1 X-23.448 Y20.673 E41.78765
G1 X-28.937 Y20.751 E42.06152
G1 X-32.761 Y20.969 E42.25261
G1 X-32.969 Y20.975 E42.263
G1 X-43.43 Y20.965 E42.7849
G1 X-43.965 Y20.925 E42.81166
G1 X-44.488 Y20.805 E42.83843
G1 X-44.987 Y20.609 E42.86518
G1 X-45.452 Y20.342 E42.89193
G1 X-45.872 Y20.008 E42.9187
G1 X-46.237 Y19.615 E42.94546
G1 X-46.54 Y19.173 E42.9722
G1 X-46.774 Y18.69 E42.99897
G1 X-46.934 Y18.178 E43.02574
G1 X-47.016 Y17.648 E43.05249
G1 X-47.027 Y17.365 E43.06662
G1 X-47.027 Y-17.366 E44.79936
G1 X-46.987 Y-17.901 E44.82612
G1 X-46.868 Y-18.424 E44.85288
G1 X-46.673 Y-18.923 E44.87961
G1 X-46.405 Y-19.388 E44.90639
G1 X-46.072 Y-19.808 E44.93313
G1 X-45.68 Y-20.174 E44.95989
G1 X-45.238 Y-20.477 E44.98662
G1 X-44.755 Y-20.712 E45.01342
G1 X-44.244 Y-20.872 E45.04013
G1 X-43.714 Y-20.955 E45.0669
G1 X-43.427 Y-20.966 E45.08123
G1 X-32.632 Y-20.965 E45.61979
G1 X-32.417 Y-20.959 E45.63052
G1 X-28.942 Y-20.751 E45.8042
G1 X-23.468 Y-20.673 E46.07733
G1 X-17.166 Y-20.962 E46.39207
G1 X-17.001 Y-20.966 E46.4003
G1 X-6.212 Y-20.965 E46.93857
G1 X-6.025 Y-20.96 E46.9479
G1 X-3.873 Y-20.848 E47.05541
G1 X1.646 Y-20.773 E47.33078
G1 X6.832 Y-20.972 E47.5897
G1 X6.974 Y-20.975 E47.59678
G1 X17.457 Y-20.964 E48.11978
G1 X17.664 Y-20.958 E48.13011
G1 X20.904 Y-20.768 E48.29204
G1 X26.391 Y-20.69 E48.56581
G1 X32.486 Y-20.962 E48.87019
G1 X32.646 Y-20.966 E48.87818
G1 X43.427 Y-20.965 E49.41605
G1 X43.962 Y-20.925 E49.44281
G1 X44.485 Y-20.806 E49.46957
G1 X44.984 Y-20.611 E49.4963
G1 X45.449 Y-20.343 E49.52308
G1 X45.869 Y-20.01 E49.54982
G1 X46.235 Y-19.618 E49.57657
G1 X46.539 Y-19.175 E49.60338
G1 X46.773 Y-18.693 E49.63011
G1 X46.933 Y-18.181 E49.65687
G1 X47.016 Y-17.651 E49.68364
G1 X47.027 Y-17.365 E49.69791
G1 X47.027 Y17.366 E51.43065
G1 X46.987 Y17.901 E51.45742
G1 X46.868 Y18.424 E51.48418
G1 X46.673 Y18.923 E51.5109
G1 X46.405 Y19.388 E51.53768
G1 X46.072 Y19.808 E51.56442
G1 X45.68 Y20.174 E51.59118
G1 X45.238 Y20.477 E51.61791
G1 X44.755 Y20.712 E51.64471
G1 X44.244 Y20.872 E51.67143
G1 X43.714 Y20.955 E51.69819
G1 X43.426 Y20.966 E51.71257
G1 X32.622 Y20.964 E52.25158
G1 X32.412 Y20.958 E52.26206
G1 X29.172 Y20.768 E52.42399
G1 X23.685 Y20.69 E52.69776
G1 X17.59 Y20.962 E53.00214
G1 X17.421 Y20.966 E53.01058
G1 X5.97 Y20.937 E53.58187
G1 X5.842 Y20.934 E53.58826
G1 X1.554 Y20.771 E53.80234
G0 F3000 X1.545 Y20.371
G1 F1500 X-3.965 Y20.452 E54.07727
G1 X-6.032 Y20.561 E54.18053
G1 X-6.197 Y20.565 E54.18877
G1 X-16.301 Y20.575 E54.69286
G1 X-16.441 Y20.572 E54.69985
G1 X-23.437 Y20.273 E55.0492
G1 X-28.942 Y20.351 E55.32387
G1 X-32.784 Y20.57 E55.51586
G1 X-32.969 Y20.575 E55.52509
G1 X-43.43 Y20.565 E56.04699
G1 X-43.934 Y20.525 E56.07222
G1 X-44.425 Y20.405 E56.09743
G1 X-44.892 Y20.21 E56.12268
G1 X-45.321 Y19.944 E56.14787
G1 X-45.704 Y19.613 E56.17312
G1 X-46.03 Y19.227 E56.19833
G1 X-46.29 Y18.794 E56.22353
G1 X-46.48 Y18.325 E56.24877
G1 X-46.593 Y17.832 E56.27401
G1 X-46.627 Y17.365 E56.29737
G1 X-46.627 Y-17.366 E58.0301
G1 X-46.587 Y-17.87 E58.05533
G1 X-46.468 Y-18.361 E58.08053
G1 X-46.274 Y-18.828 E58.10576
G1 X-46.008 Y-19.258 E58.13099
G1 X-45.678 Y-19.641 E58.15621
G1 X-45.291 Y-19.967 E58.18145
G1 X-44.858 Y-20.228 E58.20668
G1 X-44.39 Y-20.418 E58.23188
G1 X-43.897 Y-20.531 E58.25711
G1 X-43.427 Y-20.566 E58.28062
G1 X-32.632 Y-20.565 E58.81919
G1 X-32.441 Y-20.559 E58.82872
G1 X-28.972 Y-20.351 E59.0021
G1 X-23.472 Y-20.273 E59.27653
G1 X-17.147 Y-20.563 E59.59241
G1 X-17.001 Y-20.566 E59.5997
G1 X-6.212 Y-20.565 E60.13796
G1 X-6.046 Y-20.561 E60.14625
G1 X-3.874 Y-20.448 E60.25476
G1 X1.636 Y-20.373 E60.52968
G1 X6.847 Y-20.573 E60.78985
G1 X6.973 Y-20.575 E60.79613
G1 X17.456 Y-20.564 E61.31913
G1 X17.64 Y-20.559 E61.32831
G1 X20.897 Y-20.368 E61.49109
G1 X26.385 Y-20.29 E61.76491
G1 X32.503 Y-20.563 E62.07044
G1 X32.646 Y-20.566 E62.07758
G1 X43.427 Y-20.565 E62.61545
G1 X43.931 Y-20.525 E62.64067
G1 X44.423 Y-20.406 E62.66592
G1 X44.889 Y-20.211 E62.69113
G1 X45.319 Y-19.946 E62.71632
G1 X45.702 Y-19.615 E62.74158
G1 X46.028 Y-19.229 E62.76679
G1 X46.289 Y-18.796 E62.79201
G1 X46.479 Y-18.327 E62.81726
G1 X46.592 Y-17.835 E62.84244
G1 X46.627 Y-17.365 E62.86595
G1 X46.627 Y17.366 E64.59869
G1 X46.587 Y17.87 E64.62391
G1 X46.468 Y18.361 E64.64912
G1 X46.274 Y18.828 E64.67435
G1 X46.008 Y19.258 E64.69957
G1 X45.678 Y19.641 E64.7248
G1 X45.291 Y19.967 E64.75004
G1 X44.858 Y20.228 E64.77526
G1 X44.39 Y20.418 E64.80046
G1 X43.897 Y20.531 E64.8257
G1 X43.426 Y20.566 E64.84926
G1 X32.622 Y20.564 E65.38827
G1 X32.436 Y20.559 E65.39756
G1 X29.179 Y20.368 E65.56033
G1 X23.691 Y20.29 E65.83415
G1 X17.573 Y20.563 E66.13969
G1 X17.422 Y20.566 E66.14722
G1 X5.971 Y20.537 E66.71852
G1 X5.858 Y20.535 E66.72415
G1 X1.545 Y20.371 E66.93949
G1 F3600 E63.93949
G0 F3000 X-5.546 Y16.761
G0 X-6.825 Y16.761
G0 X-6.881 Y16.705
G0 X-6.811 Y16.775
;TYPE:WALL-INNER
G1 F3600 E66.98106
G1 F1500 X-16.411 Y16.775 E67.46001
G1 X-16.411 Y-16.775 E69.13382
G1 X-14.611 Y-16.775 E69.22363
G1 X-14.611 Y14.975 E70.80764
G1 X-8.611 Y14.975 E71.10698
G1 X-8.611 Y-16.775 E72.691
G1 X-6.811 Y-16.775 E72.7808
G1 X-6.811 Y16.775 E74.45461
G0 F3000 X-9.011 Y14.575
;TYPE:WALL-OUTER
G1 F1500 X-9.011 Y-17.175 E76.03863
G1 X-6.411 Y-17.175 E76.16834
G1 X-6.411 Y17.175 E77.88207
G1 X-16.811 Y17.175 E78.40093
G1 X-16.811 Y-17.175 E80.11466
G1 X-14.211 Y-17.175 E80.24437
G1 X-14.211 Y14.575 E81.82839
G1 X-9.011 Y14.575 E82.08781
G0 F3000 X-9.011 Y14.375
G0 X-8.511 Y14.375
G0 X-8.583 Y15.003
G0 X-16.211 Y16.575
G0 X-15.822 Y16.421
;TYPE:SKIN
G1 F1500 X-15.256 Y16.421 E82.11605
G1 X-16.059 Y15.619 E82.17267
G1 X-16.059 Y15.053 E82.20091
G1 X-14.69 Y16.421 E82.29747
G1 X-14.125 Y16.421 E82.32565
G1 X-16.059 Y14.487 E82.46211
G1 X-16.059 Y13.922 E82.4903
G1 X-14.963 Y15.018 E82.56763
G1 X-14.963 Y14.452 E82.59586
G1 X-16.059 Y13.356 E82.67319
G1 X-16.059 Y12.79 E82.70143
G1 X-14.963 Y13.886 E82.77876
G1 X-14.963 Y13.321 E82.80695
G1 X-16.059 Y12.225 E82.88427
G1 X-16.059 Y11.659 E82.91251
G1 X-14.963 Y12.755 E82.98984
G1 X-14.963 Y12.189 E83.01808
G1 X-16.059 Y11.093 E83.09541
G1 X-16.059 Y10.528 E83.1236
G1 X-14.963 Y11.624 E83.20092
G1 X-14.963 Y11.058 E83.22916
G1 X-16.059 Y9.962 E83.30649
G1 X-16.059 Y9.396 E83.33473
G1 X-14.963 Y10.492 E83.41206
G1 X-14.963 Y9.927 E83.44025
G1 X-16.059 Y8.831 E83.51757
G1 X-16.059 Y8.265 E83.54581
G1 X-14.963 Y9.361 E83.62314
G1 X-14.963 Y8.795 E83.65138
G1 X-16.059 Y7.699 E83.72871
G1 X-16.059 Y7.134 E83.7569
G1 X-14.963 Y8.23 E83.83422
G1 X-14.963 Y7.664 E83.86246
G1 X-16.059 Y6.568 E83.93979
G1 X-16.059 Y6.002 E83.96803
G1 X-14.963 Y7.098 E84.04536
G1 X-14.963 Y6.532 E84.0736
G1 X-16.059 Y5.436 E84.15092
G1 X-16.059 Y4.871 E84.17911
G1 X-14.963 Y5.967 E84.25644
G1 X-14.963 Y5.401 E84.28468
G1 X-16.059 Y4.305 E84.36201
G1 X-16.059 Y3.739 E84.39025
G1 X-14.963 Y4.835 E84.46757
G1 X-14.963 Y4.27 E84.49576
G1 X-16.059 Y3.174 E84.57309
G1 X-16.059 Y2.608 E84.60133
G1 X-14.963 Y3.704 E84.67866
G1 X-14.963 Y3.138 E84.7069
G1 X-16.059 Y2.042 E84.78422
G1 X-16.059 Y1.477 E84.81241
G1 X-14.963 Y2.573 E84.88974
G1 X-14.963 Y2.007 E84.91798
G1 X-16.059 Y0.911 E84.99531
G1 X-16.059 Y0.345 E85.02354
G1 X-14.963 Y1.441 E85.10087
G1 X-14.963 Y0.876 E85.12906
G1 X-16.059 Y-.219 E85.20636
G1 X-16.059 Y-.785 E85.23459
G1 X-14.963 Y0.31 E85.31189
G1 X-14.963 Y-.255 E85.34007
G1 X-16.059 Y-1.351 E85.4174
G1 X-16.059 Y-1.916 E85.44559
G1 X-14.963 Y-.82 E85.52292
G1 X-14.963 Y-1.386 E85.55116
G1 X-16.059 Y-2.482 E85.62849
G1 X-16.059 Y-3.048 E85.65672
G1 X-14.963 Y-1.952 E85.73405
G1 X-14.963 Y-2.518 E85.76229
G1 X-16.059 Y-3.614 E85.83962
G1 X-16.059 Y-4.179 E85.86781
G1 X-14.963 Y-3.083 E85.94514
G1 X-14.963 Y-3.649 E85.97337
G1 X-16.059 Y-4.745 E86.0507
G1 X-16.059 Y-5.311 E86.07894
G1 X-14.963 Y-4.215 E86.15627
G1 X-14.963 Y-4.78 E86.18446
G1 X-16.059 Y-5.876 E86.26179
